assets/features/health.svg

<?xml version="1.0" encoding="UTF-8"?>
<svg width="16px" height="16px" viewBox="0 0 16 16" version="1.1" xmlns="http://www.w3.org/2000/svg" xmlns:xlink="http://www.w3.org/1999/xlink">
    <!-- Generator: Sketch 49.2 (51160) - http://www.bohemiancoding.com/sketch -->
    <title>Health</title>
    <desc>Created with Sketch.</desc>
    <defs></defs>
    <g id="Health-16px" stroke="none" stroke-width="1" fill="none" fill-rule="evenodd">
        <g id="Group" transform="translate(2.250000, 1.968750)" fill="#689BFF" fill-rule="nonzero">
            <path d="M10.03125,5.65625 C9.22008177,5.65625 8.5625,4.99866823 8.5625,4.1875 C8.5625,3.37633177 9.22008177,2.71875 10.03125,2.71875 C10.8424182,2.71875 11.5,3.37633177 11.5,4.1875 C11.5,4.99866823 10.8424182,5.65625 10.03125,5.65625 Z M10.03125,5.1875 C10.5835347,5.1875 11.03125,4.73978475 11.03125,4.1875 C11.03125,3.63521525 10.5835347,3.1875 10.03125,3.1875 C9.47896525,3.1875 9.03125,3.63521525 9.03125,4.1875 C9.03125,4.73978475 9.47896525,5.1875 10.03125,5.1875 Z M10.03125,4.75 C9.72058983,4.75 9.46875,4.49816017 9.46875,4.1875 C9.46875,3.87683983 9.72058983,3.625 10.03125,3.625 C10.3419102,3.625 10.59375,3.87683983 10.59375,4.1875 C10.59375,4.49816017 10.3419102,4.75 10.03125,4.75 Z M9.78560982,5.55936507 C9.78590299,5.64763486 9.78671723,5.74623054 9.78858948,5.9513617 C9.79807869,6.99103639 9.78542474,7.5508895 9.71458953,8.20244737 C9.6024321,9.234096 9.35612776,10.0441173 8.9409907,10.619183 C8.46571464,11.2775558 7.76861866,11.625 6.75422037,11.625 C5.50908101,11.625 4.73458737,11.1034008 4.26904536,10.1050454 C3.88810584,9.28812025 3.7362106,8.23408966 3.71871426,6.81736523 L3.25,6.82315378 C3.27781834,9.07567727 3.6386783,12.09375 6.75422037,12.09375 C10.5667204,12.09375 10.2542204,7.57433561 10.2542204,5.46875 L9.78560982,5.55936507 Z M4.14863909,6.95272182 C7.28233701,6.46655128 7.00619917,2.35429649 7.00619917,0.375 L6.03125,0.375 L6.03125,0 L5.875,0 C5.70241102,3.17040821e-17 5.5625,0.139911016 5.5625,0.3125 L5.5625,0.9375 C5.5625,1.11008898 5.70241102,1.25 5.875,1.25 L6.03125,1.25 L6.03125,0.84375 L6.54044188,0.84375 C6.55005748,1.89728639 6.53740353,2.4571395 6.46656832,3.10869737 C6.35441089,4.140346 6.10810655,4.95036731 5.6929695,5.52543297 C5.21769344,6.18380575 4.52059745,6.53125 3.50619917,6.53125 C2.49180088,6.53125 1.7947049,6.18380575 1.31942884,5.52543297 C0.90429178,4.95036731 0.65798744,4.140346 0.545830016,3.10869737 C0.4749948,2.4571395 0.462340851,1.89728639 0.47183006,0.857611696 C0.471855308,0.85484541 0.637495288,0.850894909 0.96875,0.845760193 L0.96875,1.25 L1.125,1.25 C1.29758898,1.25 1.4375,1.11008898 1.4375,0.9375 L1.4375,0.3125 C1.4375,0.139911016 1.29758898,-3.17040821e-17 1.125,0 L0.96875,0 L0.96875,0.375 L0.00619916683,0.375 C0.00619916683,2.36561469 -0.273105776,6.51365117 2.91785262,6.96070523 L3.28007889,7.68515778 C3.40887608,9.77477003 4.02324824,12.09375 6.75422037,12.09375 C10.5667204,12.09375 10.2542204,7.57433561 10.2542204,5.46875 L9.78560982,5.55936507 C9.78590299,5.64763486 9.78671723,5.74623054 9.78858948,5.9513617 C9.79807869,6.99103639 9.78542474,7.5508895 9.71458953,8.20244737 C9.6024321,9.234096 9.35612776,10.0441173 8.9409907,10.619183 C8.46571464,11.2775558 7.76861866,11.625 6.75422037,11.625 C5.50908101,11.625 4.73458737,11.1034008 4.26904536,10.1050454 C3.97613104,9.47689037 3.81863852,8.70854738 3.75353962,7.74292077 L4.14863909,6.95272182 Z" id="Combined-Shape"></path>
        </g>
    </g>
</svg>

<?xml version="1.0" encoding="UTF-8" standalone="no"?>
<svg
   xmlns:dc="http://purl.org/dc/elements/1.1/"
   xmlns:cc="http://creativecommons.org/ns#"
   xmlns:rdf="http://www.w3.org/1999/02/22-rdf-syntax-ns#"
   xmlns:svg="http://www.w3.org/2000/svg"
   xmlns="http://www.w3.org/2000/svg"
   xmlns:sodipodi="http://sodipodi.sourceforge.net/DTD/sodipodi-0.dtd"
   xmlns:inkscape="http://www.inkscape.org/namespaces/inkscape"
   width="16px"
   height="16px"
   viewBox="0 0 16 16"
   version="1.1"
   id="svg11"
   sodipodi:docname="health.svg"
   inkscape:version="0.92.3 (2405546, 2018-03-11)">
  <metadata
     id="metadata15">
    <rdf:RDF>
      <cc:Work
         rdf:about="">
        <dc:format>image/svg+xml</dc:format>
        <dc:type
           rdf:resource="http://purl.org/dc/dcmitype/StillImage" />
        <dc:title>Health</dc:title>
      </cc:Work>
    </rdf:RDF>
  </metadata>
  <sodipodi:namedview
     pagecolor="#ffffff"
     bordercolor="#666666"
     borderopacity="1"
     objecttolerance="10"
     gridtolerance="10"
     guidetolerance="10"
     inkscape:pageopacity="0"
     inkscape:pageshadow="2"
     inkscape:window-width="2560"
     inkscape:window-height="1346"
     id="namedview13"
     showgrid="false"
     inkscape:zoom="14.75"
     inkscape:cx="8"
     inkscape:cy="8"
     inkscape:window-x="-11"
     inkscape:window-y="-11"
     inkscape:window-maximized="1"
     inkscape:current-layer="svg11" />
  <!-- Generator: Sketch 49.2 (51160) - http://www.bohemiancoding.com/sketch -->
  <title
     id="title2">Health</title>
  <desc
     id="desc4">Created with Sketch.</desc>
  <defs
     id="defs6" />
  <g
     id="Health-16px"
     transform="matrix(1.3229974,0,0,1.3229974,-2.1912142,-2.6046509)"
     style="fill:none;fill-rule:evenodd;stroke:none;stroke-width:1">
    <g
       id="Group"
       transform="translate(2.25,1.96875)"
       style="fill:#689bff;fill-rule:nonzero">
      <path
         d="m 10.03125,5.65625 c -0.8111682,0 -1.46875,-0.6575818 -1.46875,-1.46875 0,-0.8111682 0.6575818,-1.46875 1.46875,-1.46875 0.811168,0 1.46875,0.6575818 1.46875,1.46875 0,0.8111682 -0.657582,1.46875 -1.46875,1.46875 z m 0,-0.46875 c 0.552285,0 1,-0.4477153 1,-1 0,-0.5522847 -0.447715,-1 -1,-1 -0.5522847,0 -1,0.4477153 -1,1 0,0.5522847 0.4477153,1 1,1 z m 0,-0.4375 c -0.3106602,0 -0.5625,-0.2518398 -0.5625,-0.5625 0,-0.3106602 0.2518398,-0.5625 0.5625,-0.5625 0.31066,0 0.5625,0.2518398 0.5625,0.5625 0,0.3106602 -0.25184,0.5625 -0.5625,0.5625 z M 9.7856098,5.5593651 c 2.932e-4,0.08827 0.00111,0.1868654 0.00298,0.3919966 0.00949,1.0396747 -0.00316,1.5995278 -0.074,2.2510857 C 9.6024321,9.234096 9.3561278,10.044117 8.9409907,10.619183 8.4657146,11.277556 7.7686187,11.625 6.7542204,11.625 5.509081,11.625 4.7345874,11.103401 4.2690454,10.105045 3.8881058,9.2881203 3.7362106,8.2340897 3.7187143,6.8173652 L 3.25,6.8231538 c 0.027818,2.2525235 0.3886783,5.2705962 3.5042204,5.2705962 3.8124996,0 3.4999996,-4.5194144 3.4999996,-6.625 z M 4.1486391,6.9527218 C 7.282337,6.4665513 7.0061992,2.3542965 7.0061992,0.375 H 6.03125 V 0 H 5.875 C 5.702411,0 5.5625,0.13991102 5.5625,0.3125 v 0.625 C 5.5625,1.110089 5.702411,1.25 5.875,1.25 H 6.03125 V 0.84375 h 0.5091919 c 0.00962,1.0535364 -0.00304,1.6133895 -0.073874,2.2649474 C 6.3544109,4.140346 6.1081065,4.9503673 5.6929695,5.525433 5.2176934,6.1838058 4.5205975,6.53125 3.5061992,6.53125 2.4918009,6.53125 1.7947049,6.1838058 1.3194288,5.525433 0.90429178,4.9503673 0.65798744,4.140346 0.54583002,3.1086974 0.4749948,2.4571395 0.46234085,1.8972864 0.47183006,0.8576117 0.47185531,0.85484541 0.63749529,0.85089491 0.96875,0.84576019 V 1.25 H 1.125 c 0.172589,0 0.3125,-0.139911 0.3125,-0.3125 V 0.3125 C 1.4375,0.13991102 1.297589,0 1.125,0 H 0.96875 V 0.375 H 0.00619917 c 0,1.9906147 -0.27930495,6.1386512 2.91165343,6.5857052 L 3.2800789,7.6851578 C 3.4088761,9.77477 4.0232482,12.09375 6.7542204,12.09375 c 3.8124996,0 3.4999996,-4.5194144 3.4999996,-6.625 L 9.7856098,5.559365 c 2.932e-4,0.08827 0.00111,0.1868654 0.00298,0.3919966 0.00949,1.0396747 -0.00316,1.5995278 -0.074,2.2510857 C 9.6024321,9.234096 9.3561278,10.044117 8.9409907,10.619183 8.4657146,11.277556 7.7686187,11.625 6.7542204,11.625 5.509081,11.625 4.7345874,11.103401 4.2690454,10.105045 3.976131,9.4768904 3.8186385,8.7085474 3.7535396,7.7429208 Z"
         id="Combined-Shape"
         inkscape:connector-curvature="0" />
    </g>
  </g>
</svg>
